lib/assets/svg/button/uz_add_to_google_wallet_wallet-button.svg

<svg fill="none" height="50" viewBox="0 0 288 50" width="288" xmlns="http://www.w3.org/2000/svg" xmlns:xlink="http://www.w3.org/1999/xlink"><linearGradient id="a" gradientUnits="userSpaceOnUse" x1="34.5703" x2="18.7309" y1="30.7864" y2="48.9133"><stop offset="0" stop-color="#4285f4"/><stop offset="1" stop-color="#1b74e8"/></linearGradient><rect fill="#1f1f1f" height="49" rx="24.5" width="287" x=".5" y=".5"/><path d="m51 22h-30v-5c0-2.7143 2.2018-5 4.8165-5h20.367c2.6147 0 4.8165 2.2857 4.8165 5z" fill="#34a853"/><path d="m51 26.0537h-30v-5c0-2.7143 2.2018-5 4.8165-5h20.367c2.6147 0 4.8165 2.2857 4.8165 5z" fill="#fbbc04"/><path d="m51 30.2468h-30v-5c0-2.7143 2.2018-5 4.8165-5h20.367c2.6147 0 4.8165 2.2857 4.8165 5z" fill="#ea4335"/><path d="m21 23.2752 19.0411 4.4037c2.1918.5505 4.6575 0 6.4384-1.3761l4.5205-3.3028v10.3211c0 2.6147-2.1918 4.6789-4.7945 4.6789h-20.411c-2.6027 0-4.7945-2.0642-4.7945-4.6789z" fill="url(#a)"/><path d="m64.62 32v-14.32h2.2v7.04l5.96-7.04h2.72v.12l-5.24 6.04 5.7 8.04v.12h-2.68l-4.5-6.44-1.96 2.28v4.16zm14.0441-11.7c-.4 0-.7467-.14-1.04-.42-.28-.2933-.42-.64-.42-1.04s.14-.74.42-1.02c.2933-.28.64-.42 1.04-.42s.74.14 1.02.42c.2933.28.44.62.44 1.02s-.1467.7467-.44 1.04c-.28.28-.62.42-1.02.42zm-1.08 11.7v-10.2h2.16v10.2zm4.84 0v-10.2h2.04v1.5h.12c.2266-.52.6133-.9467 1.16-1.28.56-.3467 1.16-.52 1.8-.52.28 0 .5133.02.7.06.2.04.38.0867.54.14v2.24c-.2534-.1067-.5134-.1933-.78-.26-.2534-.0667-.52-.1-.8-.1-.5067 0-.96.14-1.36.42-.3867.2667-.6934.6333-.92 1.1-.2267.4533-.34.9533-.34 1.5v5.4zm9.2673-11.7c-.4 0-.7467-.14-1.04-.42-.28-.2933-.42-.64-.42-1.04s.14-.74.42-1.02c.2933-.28.64-.42 1.04-.42s.74.14 1.02.42c.2933.28.44.62.44 1.02s-.1467.7467-.44 1.04c-.28.28-.62.42-1.02.42zm-1.08 11.7v-10.2h2.16v10.2zm5.8224-2.96v-5.36h-1.78v-1.88h1.78v-2.88h2.16v2.88h2.5002v1.88h-2.5002v4.9c0 .5067.1.8933.3 1.16.2133.2667.5666.4 1.06.4.2532 0 .4662-.0333.6402-.1.186-.0667.373-.16.56-.28v2.1c-.227.0933-.467.1667-.72.22-.254.0533-.5536.08-.9002.08-.9467 0-1.7-.2733-2.26-.82-.56-.56-.84-1.3267-.84-2.3zm8.0702-8.74c-.4 0-.747-.14-1.04-.42-.28-.2933-.42-.64-.42-1.04s.14-.74.42-1.02c.293-.28.64-.42 1.04-.42s.74.14 1.02.42c.293.28.44.62.44 1.02s-.147.7467-.44 1.04c-.28.28-.62.42-1.02.42zm-1.08 11.7v-10.2h2.16v10.2zm4.84 0v-10.2h2.04v1.4h.12c.293-.4933.727-.9 1.3-1.22.587-.3333 1.227-.5 1.92-.5 1.253 0 2.193.3733 2.82 1.12s.94 1.7333.94 2.96v6.44h-2.14v-6.16c0-.8267-.207-1.4267-.62-1.8-.413-.3867-.953-.58-1.62-.58-.52 0-.973.1467-1.36.44-.387.28-.693.6533-.92 1.12-.213.4667-.32.9667-.32 1.5v5.48zm16.104 4.64c-.894 0-1.667-.1467-2.32-.44-.64-.28-1.16-.6467-1.56-1.1-.4-.44-.687-.8933-.86-1.36l2-.84c.213.5333.553.9667 1.02 1.3.48.3467 1.053.52 1.72.52.933 0 1.666-.28 2.2-.84.546-.56.82-1.3533.82-2.38v-.98h-.12c-.32.48-.767.8667-1.34 1.16-.56.28-1.2.42-1.92.42-.867 0-1.66-.22-2.38-.66s-1.3-1.0533-1.74-1.84c-.44-.8-.66-1.7333-.66-2.8 0-1.08.22-2.0133.66-2.8.44-.8 1.02-1.42 1.74-1.86s1.513-.66 2.38-.66c.72 0 1.36.1467 1.92.44.573.2933 1.02.68 1.34 1.16h.12v-1.28h2.06v9.66c0 1.1067-.22 2.0467-.66 2.82-.427.7733-1.02 1.36-1.78 1.76s-1.64.6-2.64.6zm.02-6.5c.533 0 1.026-.1267 1.48-.38.453-.2667.82-.6467 1.1-1.14.28-.5067.42-1.1133.42-1.82 0-.7333-.14-1.3467-.42-1.84-.28-.5067-.647-.8867-1.1-1.14-.454-.2533-.947-.38-1.48-.38-.534 0-1.034.1333-1.5.4-.454.2533-.82.6267-1.1 1.12s-.42 1.1067-.42 1.84c0 .72.14 1.3333.42 1.84.28.4933.646.8667 1.1 1.12.466.2533.966.38 1.5.38z" fill="#fff"/><path d="m144.4 32.32c-1.027 0-1.993-.1867-2.9-.56-.893-.3733-1.687-.8933-2.38-1.56-.693-.68-1.24-1.4733-1.64-2.38-.387-.92-.58-1.9133-.58-2.98s.193-2.0533.58-2.96c.4-.92.94-1.7133 1.62-2.38.693-.68 1.493-1.2067 2.4-1.58s1.873-.56 2.9-.56c1.093 0 2.1.1933 3.02.58.933.3867 1.713.9267 2.34 1.62l-1.52 1.5c-.467-.52-1.027-.92-1.68-1.2-.64-.28-1.36-.42-2.16-.42-.947 0-1.82.2267-2.62.68-.8.44-1.447 1.0667-1.94 1.88-.48.8-.72 1.7467-.72 2.84s.247 2.0467.74 2.86c.493.8 1.14 1.4267 1.94 1.88.8.44 1.673.66 2.62.66.867 0 1.653-.16 2.36-.48.707-.3333 1.273-.8 1.7-1.4.44-.6.707-1.32.8-2.16h-4.9v-1.94h6.96c.08.36.12.74.12 1.14v.02c0 1.3867-.307 2.6-.92 3.64-.6 1.0267-1.433 1.8267-2.5 2.4s-2.28.86-3.64.86zm13.5 0c-1.053 0-1.98-.24-2.78-.72s-1.427-1.1267-1.88-1.94-.68-1.7333-.68-2.76c0-1.0133.227-1.9267.68-2.74.453-.8267 1.08-1.48 1.88-1.96s1.727-.72 2.78-.72c1.04 0 1.96.24 2.76.72s1.427 1.1333 1.88 1.96c.453.8133.68 1.7267.68 2.74 0 1.0267-.227 1.9467-.68 2.76s-1.08 1.46-1.88 1.94-1.72.72-2.76.72zm0-1.98c.56 0 1.08-.1333 1.56-.4.48-.28.867-.6733 1.16-1.18.307-.52.46-1.14.46-1.86s-.153-1.3333-.46-1.84c-.293-.52-.68-.9133-1.16-1.18-.48-.28-1-.42-1.56-.42s-1.087.14-1.58.42c-.48.2667-.873.66-1.18 1.18-.293.5067-.44 1.12-.44 1.84s.147 1.34.44 1.86c.307.5067.7.9 1.18 1.18.493.2667 1.02.4 1.58.4zm12.109 1.98c-1.053 0-1.98-.24-2.78-.72s-1.426-1.1267-1.88-1.94c-.453-.8133-.68-1.7333-.68-2.76 0-1.0133.227-1.9267.68-2.74.454-.8267 1.08-1.48 1.88-1.96s1.727-.72 2.78-.72c1.04 0 1.96.24 2.76.72s1.427 1.1333 1.88 1.96c.454.8133.68 1.7267.68 2.74 0 1.0267-.226 1.9467-.68 2.76-.453.8133-1.08 1.46-1.88 1.94s-1.72.72-2.76.72zm0-1.98c.56 0 1.08-.1333 1.56-.4.48-.28.867-.6733 1.16-1.18.307-.52.46-1.14.46-1.86s-.153-1.3333-.46-1.84c-.293-.52-.68-.9133-1.16-1.18-.48-.28-1-.42-1.56-.42s-1.086.14-1.58.42c-.48.2667-.873.66-1.18 1.18-.293.5067-.44 1.12-.44 1.84s.147 1.34.44 1.86c.307.5067.7.9 1.18 1.18.494.2667 1.02.4 1.58.4zm11.91 6.3c-.894 0-1.667-.1467-2.32-.44-.64-.28-1.16-.6467-1.56-1.1-.4-.44-.687-.8933-.86-1.36l2-.84c.213.5333.553.9667 1.02 1.3.48.3467 1.053.52 1.72.52.933 0 1.666-.28 2.2-.84.546-.56.82-1.3533.82-2.38v-.98h-.12c-.32.48-.767.8667-1.34 1.16-.56.28-1.2.42-1.92.42-.867 0-1.66-.22-2.38-.66s-1.3-1.0533-1.74-1.84c-.44-.8-.66-1.7333-.66-2.8 0-1.08.22-2.0133.66-2.8.44-.8 1.02-1.42 1.74-1.86s1.513-.66 2.38-.66c.72 0 1.36.1467 1.92.44.573.2933 1.02.68 1.34 1.16h.12v-1.28h2.06v9.66c0 1.1067-.22 2.0467-.66 2.82-.427.7733-1.02 1.36-1.78 1.76s-1.64.6-2.64.6zm.02-6.5c.533 0 1.026-.1267 1.48-.38.453-.2667.82-.6467 1.1-1.14.28-.5067.42-1.1133.42-1.82 0-.7333-.14-1.3467-.42-1.84-.28-.5067-.647-.8867-1.1-1.14-.454-.2533-.947-.38-1.48-.38-.534 0-1.034.1333-1.5.4-.454.2533-.82.6267-1.1 1.12s-.42 1.1067-.42 1.84c0 .72.14 1.3333.42 1.84.28.4933.646.8667 1.1 1.12.466.2533.966.38 1.5.38zm7.607 1.86v-14.32h2.16v14.32zm9.269.32c-1 0-1.894-.2333-2.68-.7-.787-.4667-1.407-1.1067-1.86-1.92-.44-.8133-.66-1.74-.66-2.78 0-.9733.213-1.8733.64-2.7.426-.8267 1.02-1.4867 1.78-1.98.773-.5067 1.66-.76 2.66-.76 1.053 0 1.946.2267 2.68.68.746.4533 1.313 1.0733 1.7 1.86.386.7867.58 1.6733.58 2.66 0 .1467-.007.28-.02.4 0 .12-.007.2133-.02.28h-7.88c.106 1.0133.46 1.7733 1.06 2.28.613.5067 1.306.76 2.08.76.693 0 1.266-.1533 1.72-.46.453-.32.813-.7133 1.08-1.18l1.78.86c-.44.8-1.04 1.4533-1.8 1.96-.76.4933-1.707.74-2.84.74zm-.1-9c-.72 0-1.334.22-1.84.66-.507.44-.847 1.0267-1.02 1.76h5.66c-.027-.3467-.14-.7067-.34-1.08s-.507-.6867-.92-.94c-.4-.2667-.914-.4-1.54-.4zm13.731 8.68-3.84-14.32h2.44l2.28 9.3.24 1.24h.12l.3-1.24 2.88-9.3h2.2l2.76 9.3.3 1.22h.12l.24-1.22 2.28-9.3h2.42l-3.78 14.32h-2.32l-2.74-9.5-.32-1.34h-.12l-.34 1.34-2.86 9.5zm18.756.32c-.733 0-1.386-.14-1.96-.42-.573-.2933-1.02-.7-1.34-1.22s-.48-1.1133-.48-1.78c0-.72.187-1.3333.56-1.84.387-.52.9-.9133 1.54-1.18s1.347-.4 2.12-.4c.64 0 1.2.06 1.68.18.494.12.867.2467 1.12.38v-.54c0-.6667-.24-1.2-.72-1.6s-1.1-.6-1.86-.6c-.52 0-1.013.12-1.48.36-.466.2267-.84.54-1.12.94l-1.48-1.14c.44-.6133 1.02-1.0933 1.74-1.44.734-.36 1.534-.54 2.4-.54 1.48 0 2.62.3667 3.42 1.1.8.72 1.2 1.7333 1.2 3.04v6.38h-2.1v-1.26h-.12c-.266.4133-.666.78-1.2 1.1-.533.32-1.173.48-1.92.48zm.38-1.76c.56 0 1.054-.1333 1.48-.4.427-.2667.76-.6133 1-1.04.254-.44.38-.9133.38-1.42-.306-.1733-.666-.3133-1.08-.42-.413-.12-.853-.18-1.32-.18-.88 0-1.506.18-1.88.54-.373.3467-.56.7733-.56 1.28 0 .48.18.8733.54 1.18s.84.46 1.44.46zm7.358 1.44v-14.32h2.16v14.32zm4.727 0v-14.32h2.16v14.32zm9.269.32c-1 0-1.894-.2333-2.68-.7-.787-.4667-1.407-1.1067-1.86-1.92-.44-.8133-.66-1.74-.66-2.78 0-.9733.213-1.8733.64-2.7.426-.8267 1.02-1.4867 1.78-1.98.773-.5067 1.66-.76 2.66-.76 1.053 0 1.946.2267 2.68.68.746.4533 1.313 1.0733 1.7 1.86.386.7867.58 1.6733.58 2.66 0 .1467-.007.28-.02.4 0 .12-.007.2133-.02.28h-7.88c.106 1.0133.46 1.7733 1.06 2.28.613.5067 1.306.76 2.08.76.693 0 1.266-.1533 1.72-.46.453-.32.813-.7133 1.08-1.18l1.78.86c-.44.8-1.04 1.4533-1.8 1.96-.76.4933-1.707.74-2.84.74zm-.1-9c-.72 0-1.334.22-1.84.66-.507.44-.847 1.0267-1.02 1.76h5.66c-.027-.3467-.14-.7067-.34-1.08s-.507-.6867-.92-.94c-.4-.2667-.914-.4-1.54-.4zm7.731 5.72v-5.36h-1.78v-1.88h1.78v-2.88h2.16v2.88h2.5v1.88h-2.5v4.9c0 .5067.1.8933.3 1.16.213.2667.566.4 1.06.4.253 0 .466-.0333.64-.1.186-.0667.373-.16.56-.28v2.1c-.227.0933-.467.1667-.72.22-.254.0533-.554.08-.9.08-.947 0-1.7-.2733-2.26-.82-.56-.56-.84-1.3267-.84-2.3z" fill="#fff"/><rect height="49" rx="24.5" stroke="#747775" width="287" x=".5" y=".5"/></svg>

<svg width="288" height="50" viewBox="0 0 288 50" fill="none" xmlns="http://www.w3.org/2000/svg">
<rect x="0.5" y="0.5" width="287" height="49" rx="24.5" fill="#1F1F1F"/>
<path d="M51 22H21V17C21 14.2857 23.2018 12 25.8165 12H46.1835C48.7982 12 51 14.2857 51 17V22Z" fill="#34A853"/>
<path d="M51 26.0537H21V21.0537C21 18.3394 23.2018 16.0537 25.8165 16.0537H46.1835C48.7982 16.0537 51 18.3394 51 21.0537V26.0537Z" fill="#FBBC04"/>
<path d="M51 30.2468H21V25.2468C21 22.5325 23.2018 20.2468 25.8165 20.2468H46.1835C48.7982 20.2468 51 22.5325 51 25.2468V30.2468Z" fill="#EA4335"/>
<path d="M21 23.2752L40.0411 27.6789C42.2329 28.2294 44.6986 27.6789 46.4795 26.3028L51 23V33.3211C51 35.9358 48.8082 38 46.2055 38H25.7945C23.1918 38 21 35.9358 21 33.3211V23.2752Z" fill="url(#paint0_linear_1819_24899)"/>
<path d="M64.62 32V17.68H66.82V24.72L72.78 17.68H75.5V17.8L70.26 23.84L75.96 31.88V32H73.28L68.78 25.56L66.82 27.84V32H64.62ZM78.6641 20.3C78.2641 20.3 77.9174 20.16 77.6241 19.88C77.3441 19.5867 77.2041 19.24 77.2041 18.84C77.2041 18.44 77.3441 18.1 77.6241 17.82C77.9174 17.54 78.2641 17.4 78.6641 17.4C79.0641 17.4 79.4041 17.54 79.6841 17.82C79.9774 18.1 80.1241 18.44 80.1241 18.84C80.1241 19.24 79.9774 19.5867 79.6841 19.88C79.4041 20.16 79.0641 20.3 78.6641 20.3ZM77.5841 32V21.8H79.7441V32H77.5841ZM82.4241 32V21.8H84.4641V23.3H84.5841C84.8107 22.78 85.1974 22.3533 85.7441 22.02C86.3041 21.6733 86.9041 21.5 87.5441 21.5C87.8241 21.5 88.0574 21.52 88.2441 21.56C88.4441 21.6 88.6241 21.6467 88.7841 21.7V23.94C88.5307 23.8333 88.2707 23.7467 88.0041 23.68C87.7507 23.6133 87.4841 23.58 87.2041 23.58C86.6974 23.58 86.2441 23.72 85.8441 24C85.4574 24.2667 85.1507 24.6333 84.9241 25.1C84.6974 25.5533 84.5841 26.0533 84.5841 26.6V32H82.4241ZM91.6914 20.3C91.2914 20.3 90.9447 20.16 90.6514 19.88C90.3714 19.5867 90.2314 19.24 90.2314 18.84C90.2314 18.44 90.3714 18.1 90.6514 17.82C90.9447 17.54 91.2914 17.4 91.6914 17.4C92.0914 17.4 92.4314 17.54 92.7114 17.82C93.0047 18.1 93.1514 18.44 93.1514 18.84C93.1514 19.24 93.0047 19.5867 92.7114 19.88C92.4314 20.16 92.0914 20.3 91.6914 20.3ZM90.6114 32V21.8H92.7714V32H90.6114ZM96.4338 29.04V23.68H94.6538V21.8H96.4338V18.92H98.5938V21.8H101.094V23.68H98.5938V28.58C98.5938 29.0867 98.6938 29.4733 98.8938 29.74C99.1071 30.0067 99.4604 30.14 99.9538 30.14C100.207 30.14 100.42 30.1067 100.594 30.04C100.78 29.9733 100.967 29.88 101.154 29.76V31.86C100.927 31.9533 100.687 32.0267 100.434 32.08C100.18 32.1333 99.8804 32.16 99.5338 32.16C98.5871 32.16 97.8338 31.8867 97.2738 31.34C96.7138 30.78 96.4338 30.0133 96.4338 29.04ZM104.504 20.3C104.104 20.3 103.757 20.16 103.464 19.88C103.184 19.5867 103.044 19.24 103.044 18.84C103.044 18.44 103.184 18.1 103.464 17.82C103.757 17.54 104.104 17.4 104.504 17.4C104.904 17.4 105.244 17.54 105.524 17.82C105.817 18.1 105.964 18.44 105.964 18.84C105.964 19.24 105.817 19.5867 105.524 19.88C105.244 20.16 104.904 20.3 104.504 20.3ZM103.424 32V21.8H105.584V32H103.424ZM108.264 32V21.8H110.304V23.2H110.424C110.717 22.7067 111.151 22.3 111.724 21.98C112.311 21.6467 112.951 21.48 113.644 21.48C114.897 21.48 115.837 21.8533 116.464 22.6C117.091 23.3467 117.404 24.3333 117.404 25.56V32H115.264V25.84C115.264 25.0133 115.057 24.4133 114.644 24.04C114.231 23.6533 113.691 23.46 113.024 23.46C112.504 23.46 112.051 23.6067 111.664 23.9C111.277 24.18 110.971 24.5533 110.744 25.02C110.531 25.4867 110.424 25.9867 110.424 26.52V32H108.264ZM124.368 36.64C123.474 36.64 122.701 36.4933 122.048 36.2C121.408 35.92 120.888 35.5533 120.488 35.1C120.088 34.66 119.801 34.2067 119.628 33.74L121.628 32.9C121.841 33.4333 122.181 33.8667 122.648 34.2C123.128 34.5467 123.701 34.72 124.368 34.72C125.301 34.72 126.034 34.44 126.568 33.88C127.114 33.32 127.388 32.5267 127.388 31.5V30.52H127.268C126.948 31 126.501 31.3867 125.928 31.68C125.368 31.96 124.728 32.1 124.008 32.1C123.141 32.1 122.348 31.88 121.628 31.44C120.908 31 120.328 30.3867 119.888 29.6C119.448 28.8 119.228 27.8667 119.228 26.8C119.228 25.72 119.448 24.7867 119.888 24C120.328 23.2 120.908 22.58 121.628 22.14C122.348 21.7 123.141 21.48 124.008 21.48C124.728 21.48 125.368 21.6267 125.928 21.92C126.501 22.2133 126.948 22.6 127.268 23.08H127.388V21.8H129.448V31.46C129.448 32.5667 129.228 33.5067 128.788 34.28C128.361 35.0533 127.768 35.64 127.008 36.04C126.248 36.44 125.368 36.64 124.368 36.64ZM124.388 30.14C124.921 30.14 125.414 30.0133 125.868 29.76C126.321 29.4933 126.688 29.1133 126.968 28.62C127.248 28.1133 127.388 27.5067 127.388 26.8C127.388 26.0667 127.248 25.4533 126.968 24.96C126.688 24.4533 126.321 24.0733 125.868 23.82C125.414 23.5667 124.921 23.44 124.388 23.44C123.854 23.44 123.354 23.5733 122.888 23.84C122.434 24.0933 122.068 24.4667 121.788 24.96C121.508 25.4533 121.368 26.0667 121.368 26.8C121.368 27.52 121.508 28.1333 121.788 28.64C122.068 29.1333 122.434 29.5067 122.888 29.76C123.354 30.0133 123.854 30.14 124.388 30.14Z" fill="white"/>
<path d="M144.4 32.32C143.373 32.32 142.407 32.1333 141.5 31.76C140.607 31.3867 139.813 30.8667 139.12 30.2C138.427 29.52 137.88 28.7267 137.48 27.82C137.093 26.9 136.9 25.9067 136.9 24.84C136.9 23.7733 137.093 22.7867 137.48 21.88C137.88 20.96 138.42 20.1667 139.1 19.5C139.793 18.82 140.593 18.2933 141.5 17.92C142.407 17.5467 143.373 17.36 144.4 17.36C145.493 17.36 146.5 17.5533 147.42 17.94C148.353 18.3267 149.133 18.8667 149.76 19.56L148.24 21.06C147.773 20.54 147.213 20.14 146.56 19.86C145.92 19.58 145.2 19.44 144.4 19.44C143.453 19.44 142.58 19.6667 141.78 20.12C140.98 20.56 140.333 21.1867 139.84 22C139.36 22.8 139.12 23.7467 139.12 24.84C139.12 25.9333 139.367 26.8867 139.86 27.7C140.353 28.5 141 29.1267 141.8 29.58C142.6 30.02 143.473 30.24 144.42 30.24C145.287 30.24 146.073 30.08 146.78 29.76C147.487 29.4267 148.053 28.96 148.48 28.36C148.92 27.76 149.187 27.04 149.28 26.2H144.38V24.26H151.34C151.42 24.62 151.46 25 151.46 25.4V25.42C151.46 26.8067 151.153 28.02 150.54 29.06C149.94 30.0867 149.107 30.8867 148.04 31.46C146.973 32.0333 145.76 32.32 144.4 32.32ZM157.9 32.32C156.847 32.32 155.92 32.08 155.12 31.6C154.32 31.12 153.693 30.4733 153.24 29.66C152.787 28.8467 152.56 27.9267 152.56 26.9C152.56 25.8867 152.787 24.9733 153.24 24.16C153.693 23.3333 154.32 22.68 155.12 22.2C155.92 21.72 156.847 21.48 157.9 21.48C158.94 21.48 159.86 21.72 160.66 22.2C161.46 22.68 162.087 23.3333 162.54 24.16C162.993 24.9733 163.22 25.8867 163.22 26.9C163.22 27.9267 162.993 28.8467 162.54 29.66C162.087 30.4733 161.46 31.12 160.66 31.6C159.86 32.08 158.94 32.32 157.9 32.32ZM157.9 30.34C158.46 30.34 158.98 30.2067 159.46 29.94C159.94 29.66 160.327 29.2667 160.62 28.76C160.927 28.24 161.08 27.62 161.08 26.9C161.08 26.18 160.927 25.5667 160.62 25.06C160.327 24.54 159.94 24.1467 159.46 23.88C158.98 23.6 158.46 23.46 157.9 23.46C157.34 23.46 156.813 23.6 156.32 23.88C155.84 24.1467 155.447 24.54 155.14 25.06C154.847 25.5667 154.7 26.18 154.7 26.9C154.7 27.62 154.847 28.24 155.14 28.76C155.447 29.2667 155.84 29.66 156.32 29.94C156.813 30.2067 157.34 30.34 157.9 30.34ZM170.009 32.32C168.956 32.32 168.029 32.08 167.229 31.6C166.429 31.12 165.803 30.4733 165.349 29.66C164.896 28.8467 164.669 27.9267 164.669 26.9C164.669 25.8867 164.896 24.9733 165.349 24.16C165.803 23.3333 166.429 22.68 167.229 22.2C168.029 21.72 168.956 21.48 170.009 21.48C171.049 21.48 171.969 21.72 172.769 22.2C173.569 22.68 174.196 23.3333 174.649 24.16C175.103 24.9733 175.329 25.8867 175.329 26.9C175.329 27.9267 175.103 28.8467 174.649 29.66C174.196 30.4733 173.569 31.12 172.769 31.6C171.969 32.08 171.049 32.32 170.009 32.32ZM170.009 30.34C170.569 30.34 171.089 30.2067 171.569 29.94C172.049 29.66 172.436 29.2667 172.729 28.76C173.036 28.24 173.189 27.62 173.189 26.9C173.189 26.18 173.036 25.5667 172.729 25.06C172.436 24.54 172.049 24.1467 171.569 23.88C171.089 23.6 170.569 23.46 170.009 23.46C169.449 23.46 168.923 23.6 168.429 23.88C167.949 24.1467 167.556 24.54 167.249 25.06C166.956 25.5667 166.809 26.18 166.809 26.9C166.809 27.62 166.956 28.24 167.249 28.76C167.556 29.2667 167.949 29.66 168.429 29.94C168.923 30.2067 169.449 30.34 170.009 30.34ZM181.919 36.64C181.025 36.64 180.252 36.4933 179.599 36.2C178.959 35.92 178.439 35.5533 178.039 35.1C177.639 34.66 177.352 34.2067 177.179 33.74L179.179 32.9C179.392 33.4333 179.732 33.8667 180.199 34.2C180.679 34.5467 181.252 34.72 181.919 34.72C182.852 34.72 183.585 34.44 184.119 33.88C184.665 33.32 184.939 32.5267 184.939 31.5V30.52H184.819C184.499 31 184.052 31.3867 183.479 31.68C182.919 31.96 182.279 32.1 181.559 32.1C180.692 32.1 179.899 31.88 179.179 31.44C178.459 31 177.879 30.3867 177.439 29.6C176.999 28.8 176.779 27.8667 176.779 26.8C176.779 25.72 176.999 24.7867 177.439 24C177.879 23.2 178.459 22.58 179.179 22.14C179.899 21.7 180.692 21.48 181.559 21.48C182.279 21.48 182.919 21.6267 183.479 21.92C184.052 22.2133 184.499 22.6 184.819 23.08H184.939V21.8H186.999V31.46C186.999 32.5667 186.779 33.5067 186.339 34.28C185.912 35.0533 185.319 35.64 184.559 36.04C183.799 36.44 182.919 36.64 181.919 36.64ZM181.939 30.14C182.472 30.14 182.965 30.0133 183.419 29.76C183.872 29.4933 184.239 29.1133 184.519 28.62C184.799 28.1133 184.939 27.5067 184.939 26.8C184.939 26.0667 184.799 25.4533 184.519 24.96C184.239 24.4533 183.872 24.0733 183.419 23.82C182.965 23.5667 182.472 23.44 181.939 23.44C181.405 23.44 180.905 23.5733 180.439 23.84C179.985 24.0933 179.619 24.4667 179.339 24.96C179.059 25.4533 178.919 26.0667 178.919 26.8C178.919 27.52 179.059 28.1333 179.339 28.64C179.619 29.1333 179.985 29.5067 180.439 29.76C180.905 30.0133 181.405 30.14 181.939 30.14ZM189.546 32V17.68H191.706V32H189.546ZM198.815 32.32C197.815 32.32 196.921 32.0867 196.135 31.62C195.348 31.1533 194.728 30.5133 194.275 29.7C193.835 28.8867 193.615 27.96 193.615 26.92C193.615 25.9467 193.828 25.0467 194.255 24.22C194.681 23.3933 195.275 22.7333 196.035 22.24C196.808 21.7333 197.695 21.48 198.695 21.48C199.748 21.48 200.641 21.7067 201.375 22.16C202.121 22.6133 202.688 23.2333 203.075 24.02C203.461 24.8067 203.655 25.6933 203.655 26.68C203.655 26.8267 203.648 26.96 203.635 27.08C203.635 27.2 203.628 27.2933 203.615 27.36H195.735C195.841 28.3733 196.195 29.1333 196.795 29.64C197.408 30.1467 198.101 30.4 198.875 30.4C199.568 30.4 200.141 30.2467 200.595 29.94C201.048 29.62 201.408 29.2267 201.675 28.76L203.455 29.62C203.015 30.42 202.415 31.0733 201.655 31.58C200.895 32.0733 199.948 32.32 198.815 32.32ZM198.715 23.32C197.995 23.32 197.381 23.54 196.875 23.98C196.368 24.42 196.028 25.0067 195.855 25.74H201.515C201.488 25.3933 201.375 25.0333 201.175 24.66C200.975 24.2867 200.668 23.9733 200.255 23.72C199.855 23.4533 199.341 23.32 198.715 23.32ZM212.446 32L208.606 17.68H211.046L213.326 26.98L213.566 28.22H213.686L213.986 26.98L216.866 17.68H219.066L221.826 26.98L222.126 28.2H222.246L222.486 26.98L224.766 17.68H227.186L223.406 32H221.086L218.346 22.5L218.026 21.16H217.906L217.566 22.5L214.706 32H212.446ZM231.202 32.32C230.469 32.32 229.816 32.18 229.242 31.9C228.669 31.6067 228.222 31.2 227.902 30.68C227.582 30.16 227.422 29.5667 227.422 28.9C227.422 28.18 227.609 27.5667 227.982 27.06C228.369 26.54 228.882 26.1467 229.522 25.88C230.162 25.6133 230.869 25.48 231.642 25.48C232.282 25.48 232.842 25.54 233.322 25.66C233.816 25.78 234.189 25.9067 234.442 26.04V25.5C234.442 24.8333 234.202 24.3 233.722 23.9C233.242 23.5 232.622 23.3 231.862 23.3C231.342 23.3 230.849 23.42 230.382 23.66C229.916 23.8867 229.542 24.2 229.262 24.6L227.782 23.46C228.222 22.8467 228.802 22.3667 229.522 22.02C230.256 21.66 231.056 21.48 231.922 21.48C233.402 21.48 234.542 21.8467 235.342 22.58C236.142 23.3 236.542 24.3133 236.542 25.62V32H234.442V30.74H234.322C234.056 31.1533 233.656 31.52 233.122 31.84C232.589 32.16 231.949 32.32 231.202 32.32ZM231.582 30.56C232.142 30.56 232.636 30.4267 233.062 30.16C233.489 29.8933 233.822 29.5467 234.062 29.12C234.316 28.68 234.442 28.2067 234.442 27.7C234.136 27.5267 233.776 27.3867 233.362 27.28C232.949 27.16 232.509 27.1 232.042 27.1C231.162 27.1 230.536 27.28 230.162 27.64C229.789 27.9867 229.602 28.4133 229.602 28.92C229.602 29.4 229.782 29.7933 230.142 30.1C230.502 30.4067 230.982 30.56 231.582 30.56ZM238.94 32V17.68H241.1V32H238.94ZM243.667 32V17.68H245.827V32H243.667ZM252.936 32.32C251.936 32.32 251.042 32.0867 250.256 31.62C249.469 31.1533 248.849 30.5133 248.396 29.7C247.956 28.8867 247.736 27.96 247.736 26.92C247.736 25.9467 247.949 25.0467 248.376 24.22C248.802 23.3933 249.396 22.7333 250.156 22.24C250.929 21.7333 251.816 21.48 252.816 21.48C253.869 21.48 254.762 21.7067 255.496 22.16C256.242 22.6133 256.809 23.2333 257.196 24.02C257.582 24.8067 257.776 25.6933 257.776 26.68C257.776 26.8267 257.769 26.96 257.756 27.08C257.756 27.2 257.749 27.2933 257.736 27.36H249.856C249.962 28.3733 250.316 29.1333 250.916 29.64C251.529 30.1467 252.222 30.4 252.996 30.4C253.689 30.4 254.262 30.2467 254.716 29.94C255.169 29.62 255.529 29.2267 255.796 28.76L257.576 29.62C257.136 30.42 256.536 31.0733 255.776 31.58C255.016 32.0733 254.069 32.32 252.936 32.32ZM252.836 23.32C252.116 23.32 251.502 23.54 250.996 23.98C250.489 24.42 250.149 25.0067 249.976 25.74H255.636C255.609 25.3933 255.496 25.0333 255.296 24.66C255.096 24.2867 254.789 23.9733 254.376 23.72C253.976 23.4533 253.462 23.32 252.836 23.32ZM260.567 29.04V23.68H258.787V21.8H260.567V18.92H262.727V21.8H265.227V23.68H262.727V28.58C262.727 29.0867 262.827 29.4733 263.027 29.74C263.24 30.0067 263.593 30.14 264.087 30.14C264.34 30.14 264.553 30.1067 264.727 30.04C264.913 29.9733 265.1 29.88 265.287 29.76V31.86C265.06 31.9533 264.82 32.0267 264.567 32.08C264.313 32.1333 264.013 32.16 263.667 32.16C262.72 32.16 261.967 31.8867 261.407 31.34C260.847 30.78 260.567 30.0133 260.567 29.04Z" fill="white"/>
<rect x="0.5" y="0.5" width="287" height="49" rx="24.5" stroke="#747775"/>
<defs>
<linearGradient id="paint0_linear_1819_24899" x1="34.5703" y1="30.7864" x2="18.7309" y2="48.9133" gradientUnits="userSpaceOnUse">
<stop stop-color="#4285F4"/>
<stop offset="1" stop-color="#1B74E8"/>
</linearGradient>
</defs>
</svg>
